icons/plexis/48/zsnes.svg

<svg viewBox="0 0 48 48" xmlns="http://www.w3.org/2000/svg" xmlns:xlink="http://www.w3.org/1999/xlink">
  <linearGradient id="a" gradientTransform="matrix(0 -1 1 0 -.0000015 47.999998)" gradientUnits="userSpaceOnUse" x1="1" x2="47">
    <stop offset="0" stop-color="#a0a0a0"/>
    <stop offset="1" stop-color="#aaa"/>
  </linearGradient>
  <path d="m47 24c0 22.703-.297 23-23 23-22.703 0-23-.297-23-23 0-22.703.297-23 23-23 22.703 0 23 .297 23 23z" fill="url(#a)"/>
  <path d="m25 10a15 15 0 0 0-15 15 15 15 0 0 0  15 15 15 15 0 0 0  15-15 15 15 0 0 0-15-15zm0 2a13 13 0 0 1 13 13 13 13 0 0 1-13 13 13 13 0 0 1-13-13 13 13 0 0 1  13-13zm .451 1.754c-1.06 0-2.119.406-2.931 1.217l-7.54 7.525c-1.625 1.624-1.625 4.232 0 5.854 1.625 1.621 4.239 1.621 5.864 0l7.539-7.528c1.627-1.622 1.627-4.229 0-5.851-.811-.811-1.872-1.217-2.932-1.217zm.002.594c.91 0 1.817.347 2.514 1.041 1.391 1.387 1.391 3.631 0 5.019-1.395 1.387-3.644 1.387-5.029 0-1.387-1.378-1.387-3.628 0-5.019.695-.694 1.605-1.041 2.515-1.041zm6.697 6.09c-1.06 0-2.11.406-2.93 1.216l-7.54 7.526c-1.63 1.621-1.63 4.229 0 5.85 1.625 1.622 4.242 1.622 5.867 0l7.543-7.52c1.621-1.621 1.621-4.235 0-5.856-.82-.81-1.88-1.216-2.94-1.216zm0 .602c.91 0 1.825.341 2.522 1.03 1.388 1.397 1.388 3.635 0 5.02-1.392 1.385-3.642 1.385-5.031 0-1.391-1.393-1.391-3.631 0-5.02.693-.689 1.599-1.03 2.509-1.03zm-14.24.835c.91 0 1.821.345 2.518 1.039 1.387 1.383 1.387 3.631 0 5.022-1.398 1.387-3.648 1.387-5.03 0-1.388-1.387-1.388-3.635 0-5.022.692-.694 1.602-1.039 2.512-1.039zm6.703 6.684c.909 0 1.817.347 2.507 1.041 1.392 1.387 1.392 3.63 0 5.019-1.386 1.391-3.635 1.391-5.02 0-1.389-1.379-1.389-3.628 0-5.019.695-.694 1.605-1.041 2.513-1.041z" fill-opacity=".098"/>
  <path d="m24.451 12.754c-1.06 0-2.119.404-2.932 1.215l-7.539 7.527c-1.625 1.621-1.625 4.23 0 5.852 1.625 1.621 4.238 1.621 5.863 0l7.539-7.527c1.625-1.621 1.625-4.23 0-5.852-.81-.81-1.872-1.215-2.932-1.215zm.002.594c.91 0 1.819.346 2.514 1.039 1.391 1.387 1.391 3.633 0 5.02-1.395 1.387-3.644 1.387-5.03 0-1.387-1.383-1.387-3.629 0-5.02.695-.694 1.606-1.039 2.516-1.039zm6.701 6.09c-1.06 0-2.119.406-2.932 1.217l-7.543 7.525c-1.625 1.621-1.625 4.23 0 5.852 1.625 1.621 4.242 1.621 5.867 0l7.539-7.521c1.625-1.621 1.625-4.234 0-5.855-.813-.811-1.872-1.217-2.932-1.217zm0 .598c.91 0 1.821.346 2.518 1.037 1.387 1.395 1.387 3.633 0 5.02-1.391 1.383-3.642 1.383-5.03 0-1.387-1.395-1.387-3.633 0-5.02.694-.691 1.604-1.037 2.514-1.037zm-14.244.838c.91 0 1.821.348 2.518 1.041 1.387 1.383 1.387 3.629 0 5.02-1.398 1.387-3.647 1.387-5.03 0-1.391-1.387-1.391-3.633 0-5.02.694-.694 1.602-1.041 2.512-1.041zm6.703 6.686c.909 0 1.816.348 2.508 1.041 1.391 1.387 1.391 3.633 0 5.02-1.387 1.395-3.637 1.395-5.02 0-1.391-1.383-1.391-3.629 0-5.02.694-.694 1.603-1.041 2.512-1.041z" fill="#f9f9f9"/>
  <path d="m24 9a15 15 0 0 0-15 15 15 15 0 0 0  15 15 15 15 0 0 0  15-15 15 15 0 0 0-15-15m0 2a13 13 0 0 1 13 13 13 13 0 0 1-13 13 13 13 0 0 1-13-13 13 13 0 0 1  13-13" fill="#f9f9f9"/>
</svg>

<svg xmlns="http://www.w3.org/2000/svg" viewBox="0 0 48 48">
 <defs>
  <linearGradient id="linearGradient3764" x1="1" x2="47" gradientUnits="userSpaceOnUse" gradientTransform="matrix(0,-1,1,0,-1.5e-6,47.999998)">
   <stop style="stop-color:#a0a0a0;stop-opacity:1"/>
   <stop offset="1" style="stop-color:#aaa;stop-opacity:1"/>
  </linearGradient>
 </defs>
 <g>
  
  
  
 </g>
 <g>
  <path d="m 47,24 C 47,46.703 46.703,47 24,47 1.297,47 1,46.703 1,24 1,1.297 1.297,1 24,1 46.703,1 47,1.297 47,24 z" style="fill:url(#linearGradient3764);fill-opacity:1"/>
 </g>
 <g>
  <g>
   <!-- color: #aaaaaa -->
   <g>
    <path d="M 25 10 A 15 15 0 0 0 10 25 A 15 15 0 0 0 25 40 A 15 15 0 0 0 40 25 A 15 15 0 0 0 25 10 z M 25 12 A 13 13 0 0 1 38 25 A 13 13 0 0 1 25 38 A 13 13 0 0 1 12 25 A 13 13 0 0 1 25 12 z M 25.451 13.754 C 24.391 13.754 23.332 14.16 22.52 14.971 L 14.98 22.496 C 13.355 24.12 13.355 26.728 14.98 28.35 C 16.605 29.971 19.219 29.971 20.844 28.35 L 28.383 20.822 C 30.01 19.2 30.01 16.593 28.383 14.971 C 27.572 14.16 26.511 13.754 25.451 13.754 z M 25.453 14.348 C 26.363 14.348 27.27 14.695 27.967 15.389 C 29.358 16.776 29.358 19.02 27.967 20.408 C 26.572 21.795 24.323 21.795 22.938 20.408 C 21.551 19.03 21.551 16.78 22.938 15.389 C 23.633 14.695 24.543 14.348 25.453 14.348 z M 32.15 20.438 C 31.09 20.438 30.04 20.844 29.22 21.654 L 21.68 29.18 C 20.05 30.801 20.05 33.409 21.68 35.03 C 23.305 36.652 25.922 36.652 27.547 35.03 L 35.09 27.51 C 36.711 25.889 36.711 23.275 35.09 21.654 C 34.27 20.844 33.21 20.438 32.15 20.438 z M 32.15 21.04 C 33.06 21.04 33.975 21.381 34.672 22.07 C 36.06 23.467 36.06 25.705 34.672 27.09 C 33.28 28.475 31.03 28.475 29.641 27.09 C 28.25 25.697 28.25 23.459 29.641 22.07 C 30.334 21.381 31.24 21.04 32.15 21.04 z M 17.91 21.875 C 18.82 21.875 19.731 22.22 20.428 22.914 C 21.815 24.297 21.815 26.545 20.428 27.936 C 19.03 29.323 16.78 29.323 15.398 27.936 C 14.01 26.549 14.01 24.301 15.398 22.914 C 16.09 22.22 17 21.875 17.91 21.875 z M 24.613 28.559 C 25.522 28.559 26.43 28.906 27.12 29.6 C 28.512 30.987 28.512 33.23 27.12 34.619 C 25.734 36.01 23.485 36.01 22.1 34.619 C 20.711 33.24 20.711 30.991 22.1 29.6 C 22.795 28.906 23.705 28.559 24.613 28.559 z" style="fill:#000;fill-opacity:0.098;stroke:none;fill-rule:nonzero"/>
    <path d="m 24.451 12.754 c -1.06 0 -2.119 0.404 -2.932 1.215 l -7.539 7.527 c -1.625 1.621 -1.625 4.23 0 5.852 c 1.625 1.621 4.238 1.621 5.863 0 l 7.539 -7.527 c 1.625 -1.621 1.625 -4.23 0 -5.852 c -0.81 -0.81 -1.872 -1.215 -2.932 -1.215 z m 0.002 0.594 c 0.91 0 1.819 0.346 2.514 1.039 c 1.391 1.387 1.391 3.633 0 5.02 c -1.395 1.387 -3.644 1.387 -5.03 0 c -1.387 -1.383 -1.387 -3.629 0 -5.02 c 0.695 -0.694 1.606 -1.039 2.516 -1.039 z m 6.701 6.09 c -1.06 0 -2.119 0.406 -2.932 1.217 l -7.543 7.525 c -1.625 1.621 -1.625 4.23 0 5.852 c 1.625 1.621 4.242 1.621 5.867 0 l 7.539 -7.521 c 1.625 -1.621 1.625 -4.234 0 -5.855 c -0.813 -0.811 -1.872 -1.217 -2.932 -1.217 z m 0 0.598 c 0.91 0 1.821 0.346 2.518 1.037 c 1.387 1.395 1.387 3.633 0 5.02 c -1.391 1.383 -3.642 1.383 -5.03 0 c -1.387 -1.395 -1.387 -3.633 0 -5.02 c 0.694 -0.691 1.604 -1.037 2.514 -1.037 z m -14.244 0.838 c 0.91 0 1.821 0.348 2.518 1.041 c 1.387 1.383 1.387 3.629 0 5.02 c -1.398 1.387 -3.647 1.387 -5.03 0 c -1.391 -1.387 -1.391 -3.633 0 -5.02 c 0.694 -0.694 1.602 -1.041 2.512 -1.041 z m 6.703 6.686 c 0.909 0 1.816 0.348 2.508 1.041 c 1.391 1.387 1.391 3.633 0 5.02 c -1.387 1.395 -3.637 1.395 -5.02 0 c -1.391 -1.383 -1.391 -3.629 0 -5.02 c 0.694 -0.694 1.603 -1.041 2.512 -1.041 z" style="fill:#f9f9f9;fill-opacity:1;stroke:none;fill-rule:nonzero"/>
   </g>
  </g>
 </g>
 <g>
  
 </g>
 <path d="M 24 9 A 15 15 0 0 0 9 24 15 15 0 0 0 24 39 15 15 0 0 0 39 24 15 15 0 0 0 24 9 m 0 2 A 13 13 0 0 1 37 24 13 13 0 0 1 24 37 13 13 0 0 1 11 24 13 13 0 0 1 24 11" style="fill:#f9f9f9;opacity:1;fill-opacity:1;stroke:none"/>
</svg>
